X:1
T:Le temps du Muguet (2 rangs 1/2 ou 3 rangs)
C:musique trad. russe, paroles françaises Francis Lemarque. Fichier ABC par Bernard Loffet
L:1/8
Q:168
M:4/4
K:C
 [AA,,]c [eA,]c [d2D,,2] [cD,]B | [e2E,,2] [d2E,2] [A2A,,2] A,B | [cC,,]e [gC,]g [a2F,,2] [gF,]f | \
 [e2C,,2] [e2C,2] [^f2D,,2] [^g2E,,2] | [bA,,]a [e2A,2] A,,c [BA,]A | [eD,,]d [f2D,2] D,,2 [gG,]f | \
 [e2A,,2] [dA,]c [e2E,,2] [d2E,2] | [A2A,,2] [e2A,2] [^f2D,,2] [^g2E,,2] | [bA,,]a [e2A,2] A,,c [BA,]A | \
 [eD,,]d [f2D,2] D,,2 [gG,]f | [e2A,,2] [dA,]c [e2E,,2] [d2E,2] | [A2A,,2] A,2 A,,2 A,2 | \
W:Created with TablEdit http://www.tabledit.com/ by Bernard Loffet
